storage/app/icons/phosphoricons/bold/joystick-bold.svg

<svg xmlns="http://www.w3.org/2000/svg" fill="currentColor" viewBox="0 0 256 256"><path d="M208 144h-68V98.32a44 44 0 1 0-24 0V144H48a20 20 0 0 0-20 20v44a20 20 0 0 0 20 20h160a20 20 0 0 0 20-20v-44a20 20 0 0 0-20-20M108 56a20 20 0 1 1 20 20 20 20 0 0 1-20-20m96 148H52v-36h152Zm-32-100h32a12 12 0 0 1 0 24h-32a12 12 0 0 1 0-24"/></svg>

<svg xmlns="http://www.w3.org/2000/svg" viewBox="0 0 256 256" fill="currentColor"><path d="M208,144H140V98.32a44,44,0,1,0-24,0V144H48a20,20,0,0,0-20,20v44a20,20,0,0,0,20,20H208a20,20,0,0,0,20-20V164A20,20,0,0,0,208,144ZM108,56a20,20,0,1,1,20,20A20,20,0,0,1,108,56Zm96,148H52V168H204ZM172,104h32a12,12,0,0,1,0,24H172a12,12,0,0,1,0-24Z"/></svg>
